svgs/thin/guitar-electric.svg

<svg xmlns="http://www.w3.org/2000/svg" viewBox="0 0 512 512"><!--! Font Awesome Pro 6.3.0 by @fontawesome - https://fontawesome.com License - https://fontawesome.com/license (Commercial License) Copyright 2023 Fonticons, Inc. --><path d="M369.2 273.3c-5.223-5.223-12.98-7.212-20.22-4.829L325.2 276c-10.72 3.289-22.26 1.893-31.85-3.739c-3.084-1.811-6.996-1.282-9.527 1.246c-3.612 3.609-3.032 9.797 1.371 12.38c14.61 8.58 30.35 9.809 44.82 5.369l23.92-7.559c1.34-.4414 2.839-.0352 4.327 1.457c.0664 .0625-.0664-.0703 0 0c.9395 1.562 .7842 3.734-.5107 5.027l-21.41 21.41c-6.58 6.48-14.55 11.53-22.93 14.55c-23.47 8.219-43.05 26.02-53.72 48.87l-35.71 77.15c-8.857 22.12-27.33 37.56-50.69 42.37c-23.42 4.82-46.57-2.105-63.5-18.98l-71.65-71.65c-17.32-17.32-25.76-42.25-20.46-66.17c5.062-22.85 20.41-40.91 43.02-49.97l76.33-35.36c22.89-10.54 40.28-29.52 49.04-53.64C189 190.4 193.1 182.5 200.4 176.1l38.26-38.27c1.045-1.023 2.682-1.168 4.131-.125c.6895 .6914 1.129 1.93 .5313 3.207l-17.28 37.18C219.4 192.6 218.1 208.9 226.8 225.4c2.298 4.834 8.846 5.755 12.63 1.969C241.8 225.1 242.5 221.5 241.1 218.6C235.9 208.1 235.6 195.6 240.6 184.8l17.25-37.12c3.398-7.238 1.795-15.74-3.725-21.26C253.3 125.6 252.5 124.9 251.6 124.3c-7.5-5.121-17.62-4.249-24.12 2.126L189.1 164.8C180.1 172.9 174.7 182.8 170.1 193.5C163.9 213.1 149.4 229.1 130.4 237.9L53.99 273.3c-57.24 22.88-72.37 96.74-28.87 140.2l73.37 73.37c43.62 43.5 117.5 28.37 140.4-28.75l35.37-76.37c8.873-19 24.87-33.62 44.49-40.5c10.75-3.875 20.62-10.12 28.87-18.25l20.96-20.96c6.17-6.17 8.349-15.72 4.4-23.5C371.9 276.6 370.7 274.8 369.2 273.3zM203.3 365.4c3.115-3.113 3.115-8.195 0-11.31L158 308.8c-3.115-3.113-8.199-3.113-11.31 0s-3.115 8.199 0 11.32l45.26 45.25C195.1 368.5 200.2 368.5 203.3 365.4zM500.3 15.37c-15.95-15.95-40.26-19.93-60.48-9.836l-44.22 22.12c-13.61 6.809-22.1 20.51-22.1 35.8v67.39l-147.3 143.7c-3.115 3.117-3.115 8.199 0 11.31c3.115 3.117 8.197 3.117 11.31 0l212.4-208.8c15.53 10.28 36.68 8.578 50.34-5.078C515.9 56.34 515.9 30.97 500.3 15.37zM488.1 60.63c-9.348 9.344-24.59 9.344-33.94 0c-3.115-3.117-8.197-3.117-11.31 0l-54.23 54.22V63.45c0-9.195 5.084-17.41 13.26-21.48l44.21-22.12c14.03-7.004 30.91-4.266 42.01 6.828C498.3 36.03 498.3 51.27 488.1 60.63zM101.4 354.1c-3.117 3.117-3.117 8.199 0 11.31l45.25 45.26c3.115 3.117 8.199 3.117 11.31 0s3.115-8.199 0-11.31l-45.26-45.26C109.6 350.9 104.6 350.9 101.4 354.1z"/></svg>

<svg xmlns="http://www.w3.org/2000/svg" viewBox="0 0 512 512"><!-- Font Awesome Pro 6.0.0-alpha2 by @fontawesome - https://fontawesome.com License - https://fontawesome.com/license (Commercial License) --><path d="M369.172 273.336C363.95 268.113 356.196 266.125 348.952 268.508L325.205 276.008C314.482 279.297 302.943 277.899 293.353 272.267C290.268 270.456 286.357 270.985 283.826 273.513V273.513C280.214 277.122 280.795 283.31 285.197 285.896C299.806 294.476 315.55 295.705 330.022 291.266L353.944 283.707C355.284 283.266 356.682 283.57 358.17 285.062C358.237 285.125 358.305 285.195 358.371 285.266C359.311 286.828 359.055 288.898 357.76 290.191L336.35 311.605C329.77 318.086 321.795 323.133 313.416 326.156C289.942 334.375 270.37 352.172 259.694 375.023L223.989 452.172C215.131 474.289 196.659 489.73 173.303 494.539C149.879 499.359 126.729 492.434 109.801 475.555L38.154 403.905C20.831 386.582 12.397 361.657 17.695 337.739C22.756 314.886 38.107 296.833 60.717 287.773L137.051 252.414C159.944 241.875 177.33 222.895 186.088 198.773C189.016 190.367 193.971 182.516 200.412 176.078L238.67 137.812C239.715 136.789 241.352 136.645 242.801 137.688C243.491 138.379 243.93 139.617 243.332 140.895L226.055 178.078C219.392 192.562 218.97 208.901 226.817 225.405C229.115 230.239 235.663 231.16 239.447 227.375L239.447 227.375C241.755 225.067 242.485 221.536 241.05 218.604C235.894 208.067 235.598 195.616 240.59 184.762L257.842 147.637C261.241 140.398 259.635 131.898 254.116 126.375C253.348 125.609 252.508 124.898 251.592 124.262C244.092 119.141 233.969 120.016 227.467 126.391L189.098 164.766C180.975 172.887 174.725 182.762 170.977 193.508C163.852 213.133 149.352 229.133 130.358 237.883L53.993 273.258C-3.252 296.133 -18.373 370 25.121 413.5L98.487 486.867C142.106 530.367 215.971 515.242 238.842 458.121L274.213 381.75C283.086 362.75 299.084 348.125 318.707 341.25C329.457 337.375 339.329 331.129 347.579 323.004L368.536 302.046C374.707 295.876 376.885 286.329 372.937 278.548C371.929 276.562 370.654 274.818 369.172 273.336ZM203.268 365.375C206.383 362.262 206.383 357.18 203.268 354.063L158.014 308.809C154.899 305.695 149.815 305.695 146.7 308.809S143.584 317.008 146.7 320.125L191.955 365.375C195.071 368.492 200.153 368.492 203.268 365.375ZM500.299 15.367C484.346 -0.586 460.039 -4.562 439.821 5.531L395.604 27.652C381.993 34.461 373.506 48.16 373.506 63.453V130.848L226.246 274.516C223.131 277.633 223.131 282.715 226.246 285.828C229.362 288.945 234.444 288.945 237.561 285.828L449.963 77.016C465.496 87.293 486.645 85.594 500.299 71.938C515.901 56.336 515.901 30.969 500.299 15.367ZM488.987 60.625C479.639 69.969 464.393 69.969 455.045 60.625C451.93 57.508 446.848 57.508 443.731 60.625L389.504 114.848V63.453C389.504 54.258 394.588 46.039 402.764 41.973L446.979 19.852C461.012 12.848 477.893 15.586 488.987 26.68C498.332 36.027 498.332 51.273 488.987 60.625ZM101.446 354.062C98.329 357.18 98.329 362.262 101.446 365.375L146.7 410.633C149.815 413.75 154.899 413.75 158.014 410.633S161.129 402.434 158.014 399.32L112.758 354.062C109.643 350.945 104.561 350.945 101.446 354.062Z"/></svg>
